images_sukapura_svg/cmd/32/alignup.svg

<svg viewBox="0 0 32 32" xmlns="http://www.w3.org/2000/svg" xmlns:xlink="http://www.w3.org/1999/xlink"><linearGradient id="a" gradientUnits="userSpaceOnUse" x1="101" x2="81" y1="-3" y2="-3"><stop offset="0" stop-color="#0040dd"/><stop offset="1" stop-color="#0a84ff"/></linearGradient><g transform="matrix(0 1 -1 0 32 0)"><path d="m28.5 15.5h-22v5h22z" fill="#fff" stroke="#98989d" stroke-linecap="round" stroke-linejoin="round"/><path d="m20.5 23.5h-14v5h14z" fill="#fc0" stroke="#e4b500" stroke-linecap="round" stroke-linejoin="round"/><rect fill="#69696e" height="2" ry="1" transform="rotate(-90)" width="28" x="-30" y="3"/><path d="m11.970703 2.0019531c-.254373.00793-.496109.1127287-.675781.2929688l-5.0000001 5c-.388867.3896261-.388867 1.0205301 0 1.4101562l5.0000001 4.9999999c.628586.62726 1.70185.182939 1.703125-.705078v-3h12.501953c.277 0 .5-.223.5-.5v-3c0-.277-.223-.5-.5-.5h-12.501953v-3c.000209-.5628388-.464747-1.0145351-1.027344-.9980469z" fill="url(#a)"/></g></svg>

<?xml version="1.0" encoding="UTF-8" standalone="no"?>
<svg
   xmlns:dc="http://purl.org/dc/elements/1.1/"
   xmlns:cc="http://creativecommons.org/ns#"
   xmlns:rdf="http://www.w3.org/1999/02/22-rdf-syntax-ns#"
   xmlns:svg="http://www.w3.org/2000/svg"
   xmlns="http://www.w3.org/2000/svg"
   xmlns:xlink="http://www.w3.org/1999/xlink"
   xmlns:sodipodi="http://sodipodi.sourceforge.net/DTD/sodipodi-0.dtd"
   xmlns:inkscape="http://www.inkscape.org/namespaces/inkscape"
   viewBox="0 0 32 32"
   version="1.1"
   id="svg12"
   sodipodi:docname="alignup.svg"
   inkscape:export-filename="/home/rizmut/Dokumen/Rizmut/Github/libreoffice-style-sukapura/images_sukapura/cmd/32/alignup.png"
   inkscape:export-xdpi="96"
   inkscape:export-ydpi="96"
   inkscape:version="0.92.3 (unknown)">
  <metadata
     id="metadata18">
    <rdf:RDF>
      <cc:Work
         rdf:about="">
        <dc:format>image/svg+xml</dc:format>
        <dc:type
           rdf:resource="http://purl.org/dc/dcmitype/StillImage" />
        <dc:title />
      </cc:Work>
    </rdf:RDF>
  </metadata>
  <defs
     id="defs16">
    <linearGradient
       gradientTransform="translate(75,-7)"
       id="a-367"
       gradientUnits="userSpaceOnUse"
       x1="14"
       x2="13.79661"
       y1="22"
       y2="2.1355929">
      <stop
         offset="0"
         stop-color="#0040dd"
         id="stop2206" />
      <stop
         offset="1"
         stop-color="#0a84ff"
         id="stop2208" />
    </linearGradient>
    <linearGradient
       inkscape:collect="always"
       xlink:href="#a-367"
       id="linearGradient864"
       x1="26"
       y1="4"
       x2="6"
       y2="4"
       gradientUnits="userSpaceOnUse" />
  </defs>
  <sodipodi:namedview
     pagecolor="#ffffff"
     bordercolor="#666666"
     borderopacity="1"
     objecttolerance="10"
     gridtolerance="10"
     guidetolerance="10"
     inkscape:pageopacity="0"
     inkscape:pageshadow="2"
     inkscape:window-width="1366"
     inkscape:window-height="706"
     id="namedview14"
     showgrid="true"
     inkscape:snap-global="true"
     inkscape:snap-smooth-nodes="true"
     inkscape:zoom="10.429825"
     inkscape:cx="-4.3929702"
     inkscape:cy="15.499868"
     inkscape:window-x="0"
     inkscape:window-y="0"
     inkscape:window-maximized="1"
     inkscape:current-layer="g889">
    <inkscape:grid
       type="xygrid"
       id="grid828"
       spacingx="0.5"
       spacingy="0.5"
       empspacing="2" />
  </sodipodi:namedview>
  <g
     id="g889"
     transform="rotate(90,16,16)">
    <path
       sodipodi:nodetypes="ccccc"
       style="fill:#ffffff;stroke:#98989d;stroke-linecap:round;stroke-linejoin:round;stroke-opacity:1"
       inkscape:connector-curvature="0"
       id="path2"
       d="m 28.5,15.5 h -22 v 5 h 22 z" />
    <path
       style="fill:#ffcc00;fill-opacity:1;stroke:#e4b500;stroke-linecap:round;stroke-linejoin:round;stroke-opacity:1"
       id="path4"
       d="m 20.5,23.5 h -14 v 5 h 14 z"
       inkscape:connector-curvature="0"
       sodipodi:nodetypes="ccccc" />
    <rect
       style="fill:#69696e;fill-opacity:1"
       id="rect6"
       y="3"
       x="-30"
       width="28"
       transform="rotate(-90)"
       ry="1"
       height="2" />
    <path
       sodipodi:nodetypes="cccccccssssccc"
       inkscape:connector-curvature="0"
       id="path10"
       d="m 11.970703,2.0019531 c -0.254373,0.00793 -0.496109,0.1127287 -0.675781,0.2929688 l -5.0000001,5 c -0.388867,0.3896261 -0.388867,1.0205301 0,1.4101562 L 11.294922,13.705078 C 11.923508,14.332338 12.996772,13.888017 12.998047,13 V 10 H 25.5 C 25.777,10 26,9.777 26,9.5 v -3 C 26,6.223 25.777,6 25.5,6 H 12.998047 V 3 C 12.998256,2.4371612 12.5333,1.9854649 11.970703,2.0019531 Z"
       style="fill:url(#linearGradient864);fill-opacity:1;stroke:none;stroke-width:1.99761701;stroke-linecap:round;stroke-linejoin:round" />
  </g>
</svg>
